X:1
T:Title
%%score { ( 1 3 4 ) | ( 2 5 ) }
L:1/8
M:4/4
K:Eb
V:1 treble nm="Grand Piano"
V:3 treble 
V:4 treble 
V:2 bass 
V:5 bass 
V:1
 z4 z2[Q:1/4=92] [EG]>[FA] | [GB]>[GB] [Ac]>[Ac] [GB]<[B,EG] [A,DF]>[G,E] | %2
 [CEA]>[CEA] [CEA]>[Ec] [CAe]2 [CAe]>[EAc] | [GB]>[GB] [GB]>[Ac] [GB]<G G>F | %4
[M:9/8] E>EF- F/G/ [DF]2- [DF][EG]>[FA] |[M:4/4] [GB]>[GB] [Ac]>[Ac] [GB]<[B,EG] [A,DF]>[G,E] | %6
 [CEA]>[CEA] [CEA]>[Ec] [CAe]2 [CAe]>[EAc] | [GB]>[GB] [GB]>[Ac] [GB]<G E>[EF] | %8
[M:3/4] [EG]<[EB] [A,DF]>[B,DG] [G,E]2 |[M:1/4] [B,EG]>[B,FA] |[M:4/4] [GB]6 z2 | [EA]6 z2 | %12
 [GB]6 z2 | [DF]6 z2 | [GB]>[GB] [Ac]>[Ac] [GB]<[B,EG] [A,DF]>[G,E] | %15
 [CEA]>[CEA] [CEA]>[Ec] [CAe]2 [CAe]>[EAc] | [GB]>[GB] [GB]>[Ac] [GB]<G E>[EF] | %17
[M:7/8] [EG]<[EB][DF]>[DG] E3 |] %18
V:2
 z4 z2 [E,B,]>[E,B,] | [E,E]>[E,E] [E,E]>[E,E] [E,E]<E, B,,>C, | A,,>A,, A,,>[A,,A,] A,,2 A,,>A,, | %3
 [E,E]>[E,E] [E,E]>[E,E] [E,E]<[E,B,E] [E,B,E]>[F,B,D] | %4
[M:9/8] [G,B,]>[G,B,][F,B,D]- [F,B,D]/[E,B,E]/ [B,,B,]2- [B,,B,][E,B,]>[E,B,] | %5
[M:4/4] [E,E]>[E,E] [E,E]>[E,E] [E,E]<E, B,,>C, | A,,>A,, A,,>[A,,A,] A,,2 A,,>A,, | %7
 [E,E]>[E,E] [E,E]>[E,E] [E,E]<[E,B,E] [C,C]>[C,=A,] |[M:3/4] [B,,B,]<[B,,G,] B,,>B,, E,2 | %9
[M:1/4] E,>E, |[M:4/4] E,>E, E,>E, E,>E, B,,>C, | A,,>A,, A,,>A,, z z/ A/ A,,>A,, | %12
 E,>E, E,>E, E,>[E,B,E] [G,B,]>[E,B,E] | [B,,B,]>B,, B,,>B,, B,,2 [E,B,E]>[E,B,] | %14
 [E,E]>[E,E] [E,E]>[E,E] [E,E]<E, B,,>C, | A,,>A,, A,,>[A,,A,] A,,2 A,,>A,, | %16
 [E,E]>[E,E] [E,E]>[E,E] [E,E]<[E,B,E] [C,C]>[C,A,] | %17
[M:7/8] [B,,B,]<[B,,G,][B,,A,]>[B,,B,] [E,G,]3 |] %18
V:3
 x8 | x8 | x8 | x8 |[M:9/8] x9 |[M:4/4] x8 | x8 | x8 |[M:3/4] x6 |[M:1/4] x2 | %10
[M:4/4] E>E E>E E>[B,EG] [A,DF]>[G,E] | C>C C>C z z/ c/ [CAe]>[EAc] | E>E E>E E>G E>G | %13
 z z/ B,/ B,>B, B,2 G>[FA] | x8 | x8 | x8 |[M:7/8] x7 |] %18
V:4
 x8 | x8 | x8 | x8 |[M:9/8] x9 |[M:4/4] x8 | x8 | x8 |[M:3/4] x6 |[M:1/4] x2 |[M:4/4] x8 | %11
 z4 C2 z2 | x8 | x8 | x8 | x8 | x8 |[M:7/8] x7 |] %18
V:5
 x8 | x8 | x8 | x8 |[M:9/8] x9 |[M:4/4] x8 | x8 | x8 |[M:3/4] x6 |[M:1/4] x2 |[M:4/4] x8 | %11
 z4 A,,2 z2 | x8 | x8 | x8 | x8 | x8 |[M:7/8] x7 |] %18

